!!!Rep U0049
!!!Isim(Name): Aşkın Ne Derin Yareler Açtı Ciğerimde
!!!Yore(Region): Şanlıurfa
!!!Makam: Hicaz
!!!Arizalar(Accidentals): b-
!!!Usul: 6/4
**kern	**Dcent
*staff1	*.
=1-	=1-
*clefG2	*.
*k[b-]	*.
*M6/4	*.
4a	0
8dd	0
8dd	0
8dd	0
8dd	0
8a	0
8a	0
2dd	0
=2	=2
8cc#	0
8dd	0
8ee	0
8ff	0
8ee	0
8dd	0
8ee	0
8cc#	0
8.dd	0
16ff	0
16ee	0
16dd	0
16cc#	0
16b-	0
=3:!	=3:!
!!linebreak:default
4a	0
8dd	0
8dd	0
8dd	0
8dd	0
8a	0
8a	0
2dd	0
=4	=4
8cc#	0
8dd	0
8ee	0
8ff	0
8ee	0
8dd	0
8ee	0
8cc#	0
2dd	0
=5	=5
!!linebreak:default
4dd	0
8gg	0
8ff#	0
8gg	0
8ee	0
8ffn	0
8ee	0
8ff	0
4ee	0
8dd	0
=6	=6
8cc#	0
8dd	0
8ee	0
8ff	0
8ee	0
8dd	0
8ee	0
8cc#	0
2dd	0
=7	=7
!!linebreak:default
4dd	0
8aa	0
8gg	0
8gg	0
8ff#	0
8ffn	0
8ee	0
8ff	0
4ee	0
8dd	0
=8	=8
8cc#	0
8dd	0
8ee	0
8ff	0
8ee	0
8dd	0
8ee	0
8cc#	0
2dd	0
!!linebreak:default
=9!:	=9!:
4a	0
8dd	0
8dd	0
8dd	0
8dd	0
4a	0
2dd	0
=10	=10
8cc#	0
8dd	0
8ee	0
8ff	0
8ee	0
8dd	0
8ee	0
8cc#	0
8.dd	0
16ff	0
16ee	0
16dd	0
16cc#	0
16b-	0
=11:!	=11:!
!!linebreak:default
4a	0
8dd	0
8dd	0
8dd	0
8dd	0
4a	0
2dd	0
=12	=12
8cc#	0
8dd	0
8ee	0
8ff	0
8ee	0
8dd	0
8ee	0
8cc#	0
4dd	0
4r	.
=	=
*-	*-
!! Uzun Hava Humdrum Bilgi Bankasi (Uzun Hava Humdrum Database)
!! 
!! Sertan Senturk, Parag Chordia & Erdal Tugcular
!! Georgia Tech Center for Music Technology, 2011
